X:5145
T:Planxty Beth Patterson
O:england
M:8/8
C:Mark Fitzsimons
A:Auckland
K:G
fed e3 cc|fed edc BB|fed e3 cc|fed edc BB|
E=FG ABc dd|edc f3 dd|=FGA Bcd ee|fed edc B2:|
M:7/8
E=F GA BBB|\
M:8/8
cBA B3 GG|\
M:7/8
E=F GA BcB|\
M:8/8
dcB c3 AA|
M:7/8
BA BA cBA|\
M:8/8
Bcd e3 cc|\
M:7/8
fe fe gfe|\
M:8/8
fed edc B2:|
M:16/8
ggg ggg ff dd cBA cBA|\
M:18/8
gfe f3 dd ee fed edc B2|
GAB cde =ff ^ff gfe a3 ff|\
M:16/8
edc f3 dd ^cc d=c^F G3:|


